X: 1
T: Louise and Kjell
C: James Gray
R: strathspey
B: Alex & James Gray "Tweeddale Collection" p.45 #3,6
N: Tune for The Black Squirrel
Z: 2013 John Chambers <jc:trillian.mit.edu>
M: C
L: 1/8
K: Am
G |\
"Am"E<A c>A "G"B>A G<E | "C"c>G c<e "Dm"d2 ef |\
"G"g>G f>G "C"e>G "D"d>G | "Am"c>A G<E "Dm"D2 "E"ED |
"Am"E<A c>A "Em"B>A G<E | "C"c>G c<e "Dm"d2 ef |\
"G"g>G f>G "C"e>d "Am"c>A | "Em"B>A G<E "Am"A2 A ||
B/A/ |\
"C"G<c e>c "G"d>c B<G | "Am"A>E A<c "Em"B2 AG |\
"F"A>F A<c "C/E"G>E G<c | "Dm"F>E D<C "G"D2 EG |
"Am"A>E A<c "Em"B>E B<d | "C"c>E c<e "Dm"d2 ef |\
"G"g>G f>G "C"e>d "Am"c>A | "Em"B>A G<E "Am"A2 A |]
